X: 1
T: String Quartet in E\b major opus 9 no 2 mvt 1
C: Franz Joseph Haydn
%%abc-version 2.0
%%abcx-abcm2ps-target-version 5.9.1 (29 Sep 2008)
%%abc-creator hum2abc beta
%%abcx-conversion-date 2021/02/14 14:38:12
%%abc-copyright Copyright (c) 1994, 2000 Center for Computer Assisted Research in the Humanities
%%abc-edited-by Frances Bennion
%%abcx-initial-encoding-date 1997/04/15
%%gracespace 0 6 6
%%humdrum-veritas 1145315718
%%humdrum-veritas-data 850110344
%%linebreak <none>
%%barnumbers 0
L: 1/8
M: 4/4
N: Derived from op09n2-01.krn
Q: "Moderato"
%%staves [1 2 3 4]
V: 1
V: 2
V: 3 clef=alto
V: 4 clef=bass
K: Eb
[V:1]z7 E [I:setbarnb1]|
[V:2]z7 z |
[V:3]z7 z |
[V:4]z7 z |
[V:1]GB eg bg eB |
[V:2][G,2E2] z2 [E2G,2] z2 |
[V:3]B,2 z2 B,2 z2 |
[V:4]E,2 z2 E,2 z2 |
[V:1]AF DB, G,B, EG |
[V:2][F2B,2] z2 [G,2E2] z2 |
[V:3]B,2 z2 B,2 z2 |
[V:4]D,2 z2 E,2 z2 |
[V:1]CA DB A2 GE |
[V:2]z2 >D2 F2 Ez |
[V:3]A,z B,z2 <E,2 z |
[V:4]z8 |
[V:1]GB eg bg eB |
[V:2][G,2E2] z2 [E2G,2] z2 |
[V:3]B,2 z2 B,2 z2 |
[V:4]E,2 z2 E,2 z2 |
[V:1]cF AD Ez3 |
[V:2]Cz Dz Ez2 B, |
[V:3]F,z F,z G,z2 G, |
[V:4]A,,z B,,z E,2 z2 |
[V:1]z8 |
[V:2]B,4 _D4 |
[V:3]G,4 B,4 |
[V:4]E,,E, E,E, E,,E, E,E, |
[V:1]z8 |
[V:2]C4 [D4A,4] |
[V:3]A,4 F,4 |
[V:4]E,,E, E,E, E,,E, E,E, |
[V:1]ze ed/c/ BG FE |
[V:2][G,4E4] _D4 |
[V:3]G,4 B,4 |
[V:4]E,8- |
[V:1]Ee ed/c/ B2 AG/F/ |
[V:2]C4 [D4A,4] |
[V:3]A,4 F,4 |
[V:4]E,8 |
[V:1]EB/>c/ B/>c/B/>c/ Bg fe |
[V:2][G,2E2] z2 >B2 AG |
[V:3]G,2 z3 B,2 B, |
[V:4]E,2 z2 >E,2 F,G, |
[V:1]dB/>c/ B/>c/B/>c/ Ba gf |
[V:2]F2 z2 >f2 ed |
[V:3]B,2 z3 B,2 B, |
[V:4]A,2 z2 >D,2 E,F, |
[V:1]eB/>c/ B/>c/B/>c/ Bb ag |
[V:2]e2 z2 >g2 fe |
[V:3]B,2 z3 B,2 B, |
[V:4]G,2 z2 >E,2 F,G, |
[V:1]f4- f/g/a/g/ ag/f/ |
[V:2]e4 d/e/f/e/ fe/d/ |
[V:3]C4 B,4 |
[V:4]A,2 =A,2 B,3 B,, |
[V:1]ee BG E2 z2 |
[V:2]ee BG E2 z2 |
[V:3]G,E B,G, E,2 z2 |
[V:4]E,E, B,,G,, E,,2 z2 |
[V:1]g2 =B2 c2 z2 |
[V:2]z2 (3:2:2G2-G//e/g/ f/e/d/c/ B/|
[V:3]zG, DF E2 z2 |
[V:4](3:2:2z4 z/C,C E,|
[V:1]f2 =A2 Bb >=ag/f/ |
[V:2]=A2 (3:2:2F2-F//d/f/ e/d2 |
[V:3]zF, CE D2 FB, |
[V:4]F,2 z2 >B,,2 B,2- |
[V:1]e2 >f2 e2 df |
[V:2]G2 F2 >B,2 BA |
[V:3]C4- C2 B,D |
[V:4]B,C =A,2 B,2 B,,2 |
[V:1]f2 e/d/c/B/ B2 =Az |
[V:2]G4 C2 z2 |
[V:3]E2 C2 C2 zF |
[V:4]E,2 z=E, F,F,, F,_E, |
[V:1]zB/=A//B// dD Ec/=B//c// eE |
[V:2]z2 B2 >=A2 c2- |
[V:3]BB, zF2 <E2 G |
[V:4]D,2 zB,, C,C,, zC, |
[V:1]Fd/c//d// fF Ge/d//e// gB |
[V:2]cB2 <d2 c eG |
[V:3]F2 >A2 G3 C |
[V:4]D,D,, zD, E,E,, z=E, |
[V:1]=A=a/g//a// c'e df bD/C//D// |
[V:2]Fc e=A B2 zB/A//B// |
[V:3]C2 zC B,2 z2 |
[V:4]F,2 zF, B,B,, B,2- |
[V:1]Ee zE/D//E// Ff zF/E//F// |
[V:2]cC Ec/B//c// dD Fd/c//d// |
[V:3]zc/B/ =A2 zd/c/ B2 |
[V:4]B,=A,2 <C2 B, D2- |
[V:1]Gg zg =AB e2- |
[V:2]eE G2 F2 G2 |
[V:3]ze/d/ cB cB G2 |
[V:4]DC2 <E2 D2 C |
[V:1]e/>f/d >>ec >>dB >>cB3//c// |
[V:2]F2 E2 D2 C2 |
[V:3]CB,2 =A,2 G,2 G, |
[V:4]=A,B, G,A, F,G, E,=E, |
[V:1]=A/c'/=a/f/ e/c/A/E/ D/b/f/d/ B/F/D/B,/ |
[V:2]C4 D4 |
[V:3]=A,4 B,4- |
[V:4]F,F, F,F, F,F, F,F, |
[V:1]G,/b/g/=e/ c/B/G/=E/ =A,/c'/=a/f/ _e/c/=A/_E/ |
[V:2][=E4G,4] [C4_E4] |
[V:3]B,4 =A,4 |
[V:4]F,F, F,F, F,F, F,F, |
[V:1]D/d/d/c//d// f/f/f/=e//f// b/b/b/=a//b// d'/d'/d'/c'//d'// |
[V:2]D2 z2 F2 z2 |
[V:3]B,2 z2 D2 z2 |
[V:4]B,,2 z2 B,,2 z2 |
[V:1]f'4 ^f'4 |
[V:2]zB BB zB BB |
[V:3]zB BB zA AA |
[V:4]zD, D,D, zD, D,D, |
[V:1]g'4 b'3 =E |
[V:2]zB BB z_d d=E |
[V:3]zG GG zG G=E |
[V:4]zE, E,E, z=E, E,E, |
[V:1]f2 e/d/c/B/ B4 |
[V:2]FD DD DD DD |
[V:3]FB, B,B, B,B, B,B, |
[V:4]F,F, F,F, F,F, F,F, |
[V:1]f2 e/_d/c/B/ B4 |
[V:2]_DD DD DD DD |
[V:3]B,B, B,B, B,B, B,B, |
[V:4]F,F, F,F, F,F, F,F, |
[V:1](3:2:2_c4- c/e_d c|
[V:2]_DD DD DD DD |
[V:3]A,A, A,A, A,A, A,A, |
[V:4]F,F, F,F, F,F, F,F, |
[V:1]BB2 B2 B2 B |
[V:2]_D2 =D2 E2 =E2 |
[V:3]B,6 C2 |
[V:4]_G,6 =G,2 |
[V:1](3=A/c/e/(3c/A/F/ (3E/F/A/(3c/A/F/ (3A/c/e/(3c/A/F/ (3E/F/A/(3c/A/F/ |
[V:2]FC CC CC CC |
[V:3]C=A, A,A, A,A, A,A, |
[V:4]F,F, F,F, F,F, F,F, |
[V:1](3=A/c/e/(3c/A/F/ (3E/F/A/(3c/A/F/ (3A/c/e/(3c/A/F/ (3E/F/A/(3c/A/E/ |
[V:2]CC CC CC CC |
[V:3]=A,A, A,A, A,A, A,A, |
[V:4]E,E, E,E, E,E, E,E, |
[V:1]D/B/B/=A//B// d/d/d/c//d// f/f/f/=e//f// b/b/b/=a//b// |
[V:2]D2 z2 B2 z2 |
[V:3]B,2 z2 D2 z2 |
[V:4]D,2 z2 D,2 z2 |
[V:1]d'/d'/d'/c'//d'// f'/f'/f'/=e'//f'// b'3 =E |
[V:2]Bz Bz B2 =E2 |
[V:3]Fz B,z B,2 =E2 |
[V:4]B,,z D,z E,2 =E,2 |
[V:1]F4 c4 |
[V:2]FF ED zC zE |
[V:3]FD CB, z=A, zA, |
[V:4]F,2 z2 F,z F,z |
[V:1]Bb2 (3g/f/e/ dB2 (3G/E/C/ |
[V:2]Dd2 (3e/d/c/ BB2 (3G/E/C/ |
[V:3]B,2 z3 B2 (3G/E/C/ |
[V:4]B,,2 z3 B,2 (3G,/E,/C,/ |
[V:1]B,b2 (3g/f/e/ dB2 (3B,/D/F/ |
[V:2]B,d2 (3e/d/c/ BB2 (3B,/D/F/ |
[V:3]B,2 z3 B2 (3B,/D/F/ |
[V:4]B,,2 z3 B,2 (3B,,/D,/F,/ |
[V:1]B(3B,/D/F/ B(3B,/D/F/ A2 zG, |
[V:2]B(3B,/D/F/ B(3B,/D/F/ A2 z2 |
[V:3]B(3B,/D/F/ B(3B,/D/F/ A2 z2 |
[V:4]B,(3B,,/D,/F,/ B,(3B,,/D,/F,/ A,2 z2 |
[V:1]=B,D G=B d^f gG, |
[V:2]D8 |
[V:3]=B,8 |
[V:4]G,,G,, G,,G,, G,,G,, G,,G,, |
[V:1]CE G=B ce gG, |
[V:2]E8- |
[V:3]C8- |
[V:4]G,,G,, G,,G,, G,,G,, G,,G,, |
[V:1]A,C EG Ac eA, |
[V:2]E8 |
[V:3]C8 |
[V:4]A,,A,, A,,A,, A,,A,, A,,A,, |
[V:1]=A,C E_G =Ac eA, |
[V:2]_G8 |
[V:3]E8 |
[V:4]=A,,A,, A,,A,, A,,A,, A,,A,, |
[V:1]B,D FB df bB, |
[V:2]F8 |
[V:3]D8 |
[V:4]B,,B,, B,,B,, B,,B,, B,,B,, |
[V:1]=B,D FA =Bd fB, |
[V:2]A8 |
[V:3]F8 |
[V:4]=B,,B,, B,,B,, B,,B,, B,,B,, |
[V:1]CE Gc eg c'G, |
[V:2]G8 |
[V:3]E8 |
[V:4]C,C, C,C, C,C, C,C, |
[V:1]A,C EA ce a^F |
[V:2]^F6 D2- |
[V:3]C8 |
[V:4]A,,A,, A,,A,, A,,A,, A,,A,, |
[V:1]GG, =B,^F Gz3 |
[V:2]DG, =B,^F Gz3 |
[V:3]=B,G, B,^F Gz3 |
[V:4]G,,G,, =B,,^F, G,z3 |
[V:1]z2 (3:2:2E2-E//c/e/ _d/c/B/A/ G/|
[V:2]zE B_d c2 z2 |
[V:3](3:2:2z4 z/A,C E|
[V:4]E,2 G,,2 A,,2 z2 |
[V:1]F2 (3:2:2F2-F//d/f/ e/d/c/B/ A/|
[V:2]zF ce d2 z2 |
[V:3]F2 z2 >B,2 DF |
[V:4]F,2 =A,,2 B,,2 z2 |
[V:1]GG df e2 z2 |
[V:2]z4 g2 =B2 |
[V:3]G2 z2 >G,2 DF |
[V:4]G,2 =B,,2 C,2 z2 |
[V:1]c'2 =e2 f2 z2 |
[V:2]c2 BG A4- |
[V:3]E2 C2 F/G/A/G/ F/E/D/C/ |
[V:4]zC, G,B, A,/B,/C/B,/ A,/G,/F,/E,/ |
[V:1]b2 d2 ee b_d' |
[V:2]A2 >F2 E4- |
[V:3]B,4 E2 G,2 |
[V:4]D,B,, F,A, G,2 z2 |
[V:1]c'2 z2 >_d2 ac' |
[V:2]E/c/e/_d/ c/B/A/G/ F2 _D2- |
[V:3]A,2 z2 _D2 F,2 |
[V:4]A,2 C,2 _D,2 z2 |
[V:1]b2 z2 >c2 gb |
[V:2]D/B/_d/c/ B/A/G/F/ =E2 C2- |
[V:3]G,2 z2 C2 =E,2 |
[V:4]G,2 B,,2 C,2 z2 |
[V:1]a2 z2 >B2 fa |
[V:2]C/A/c/B/ A/G/F/E/ D2 B,2- |
[V:3]F,2 z2 B,2 D,2 |
[V:4]F,2 A,,2 B,,2 z2 |
[V:1]g/a/b/a/ g/f/e/d/ c2 c2- |
[V:2]B,2 z2 c2 E2 |
[V:3]E,2 (3:2:2E,2-E,//C/E/ _D/C/B,/A,/ G,/|
[V:4]E,2 G,,2 A,,2 z2 |
[V:1]c/a/c'/b/ a/g/f/e/ d2 d2- |
[V:2]F2 z2 d2 F2 |
[V:3]A,2 (3:2:2F,2-F,//D/F/ E/D/C/B,/ =A,/|
[V:4]F,2 A,,2 B,,2 z2 |
[V:1]d/b/d'/c'/ b/a/g/f/ e2 e2 |
[V:2]G2 z2 e2 G2 |
[V:3]B,2 (3:2:2G,2-G,//E/G/ F/E/D/C/ B,/|
[V:4]G,2 B,,2 C,2 z2 |
[V:1]a4 g4 |
[V:2]AE EE EE EE |
[V:3]A,E EE EE EE |
[V:4]C,C, C,C, C,C, C,C, |
[V:1]^f/c'/=a/f/ e/c/=A/^F/ E/c'/a/f/ e/c/A/F/ |
[V:2][^F8-=A8] |
[V:3]E8- |
[V:4]C,8- |
[V:1]E/c'/=a/^f/ e/c/=A/^F/ E2 z2 |
[V:2][^F4A4-] [F2A2] z2 |
[V:3]E4- E2 z2 |
[V:4]C,4- C,2 z2 |
[V:1]zD/>E/ D/>E/D/>E/ Dd cB |
[V:2]G2 z2 >B2 =AG |
[V:3]D2 z3 D2 D |
[V:4]B,,2 z2 >G,2 =A,B, |
[V:1]=AD/>E/ D/>E/D/>E/ Dc BA |
[V:2]^F2 z2 >=A2 GF |
[V:3]D2 z3 D2 D |
[V:4]C2 z2 >^F,2 G,=A, |
[V:1]GE/>F/ E/>F/E/>F/ E_d cB |
[V:2]G2 z3 E2 =E |
[V:3]D2 z2 >G,2 A,B, |
[V:4]B,2 z2 >B,2 A,G, |
[V:1]=AF/>G/ F/>G/F/>G/ Fe dc |
[V:2]F2 z3 F2 ^F |
[V:3]C2 z2 >=A,2 B,C |
[V:4]F,2 z2 >C2 B,=A, |
[V:1]=BG/>A/ G/>A/G/>A/ Gf e_d |
[V:2]G2 z3 G2 G |
[V:3]D2 (3:2:2z4 z/E-|
[V:4]G,2 z2 >D2 CB, |
[V:1](3:2:2c4- c/8_d/<c/d//(3:2:2B4- B/8c/<B/c//|
[V:2]G/>A/G/>A/ (3:2:2F4- F/8G/<F/G//E2- |
[V:3]E=E2 <F2 D _EB, |
[V:4]A,4 G,4 |
[V:1]A>B G/>A/G/>A/ F>G E/>F/E3//F// |
[V:2]ED2 C2 B,2 =A, |
[V:3]CD EE, D,F, G,F, |
[V:4]F,2 E,2 D,2 C,2 |
[V:1]DB2 (3G/F/E/ DB2 (3G/F/E/ |
[V:2]B,D2 (3E/D/C/ B,D2 (3E/D/C/ |
[V:3]F,B, B,B, B,B, B,B, |
[V:4]B,,B,, B,,B,, B,,B,, B,,B,, |
[V:1]D(3B,/D/F/ B(3B,/D/F/ A2 zE |
[V:2]B,(3B,/D/F/ B(3B,/D/F/ A2 z2 |
[V:3]B,(3B,/D/F/ B(3B,/D/F/ A2 z2 |
[V:4]B,,(3B,,/D,/F,/ B,(3B,,/D,/F,/ A,2 z2 |
[V:1]GB eg bg eB |
[V:2][E2G,2] z2 [G,2E2] z2 |
[V:3]B,2 z2 B,2 z2 |
[V:4]E,2 z2 E,2 z2 |
[V:1]AF DA, G,B, EG |
[V:2][B,2F2] z2 [G,2E2] z2 |
[V:3]B,2 z2 B,2 z2 |
[V:4]D,2 z2 E,2 z2 |
[V:1]CA DB A2 GE |
[V:2]z2 >D2 F2 Ez |
[V:3]A,z B,z2 <E,2 z |
[V:4]z8 |
[V:1]GB eg bg eB |
[V:2][E2G,2] z2 [G,2E2] z2 |
[V:3]B,2 z2 B,2 z2 |
[V:4]E,2 z2 E,2 z2 |
[V:1]cF AD Ez3 |
[V:2]Cz Dz Ez2 B, |
[V:3]F,z F,z G,z2 G, |
[V:4]A,,z B,,z E,2 z2 |
[V:1]z8 |
[V:2]B,4 _D4 |
[V:3]G,4 B,4 |
[V:4]E,,E, E,E, E,,E, E,E, |
[V:1]z8 |
[V:2]C4 [D4A,4] |
[V:3]A,4 F,4 |
[V:4]E,,E, E,E, E,,E, E,E, |
[V:1]ze ed/c/ BG FE |
[V:2][E4G,4] _D4 |
[V:3]G,4 B,4 |
[V:4]E,8- |
[V:1]Ee ed/c/ B2 AG/F/ |
[V:2]C4 [D4A,4] |
[V:3]A,4 F,4 |
[V:4]E,8 |
[V:1]EB/>c/ B/>c/B/>c/ Bg fe |
[V:2][G,2E2] z2 >B2 AG |
[V:3]G,2 z3 B,2 B, |
[V:4]E,2 z2 >E,2 F,G, |
[V:1]dB/>c/ B/>c/B/>c/ Ba gf |
[V:2]F2 z2 >f2 ed |
[V:3]B,2 z3 B,2 B, |
[V:4]A,2 z2 >D,2 E,F, |
[V:1]eB/>c/ B/>c/B/>c/ Bb ag |
[V:2]e2 z2 >g2 fe |
[V:3]B,2 z3 B,2 B, |
[V:4]G,2 z2 >E,2 F,G, |
[V:1]f/>g/a/>g/ f/>g/e/>f/ d/>e/c/>d/ B/>c/A3//B// |
[V:2]c4 BA GF |
[V:3]C2 A,=A, B,C D2 |
[V:4]A,2 A,,=A,, B,,4 |
[V:1]Ge/d//e// gG Af/=e//f// aA |
[V:2]E2 e2 >d2 f2- |
[V:3]EE, zB,2 <A,2 C |
[V:4]E,2 zE, F,F,, zF, |
[V:1]Bg/f//g// bB ca/g//a// c'e |
[V:2]fe2 <g2 f ac |
[V:3]B,2 >_D2 C3 F |
[V:4]G,G,, zG, A,A,, z=A, |
[V:1]dd/c//d// fA GB eG/F//G// |
[V:2]Bf ad e2 ze/d//e// |
[V:3]F2 zF E2 z2 |
[V:4]B,2 zB,, E,E,, E,2- |
[V:1]Aa zA/G//A// Bb zB/A//B// |
[V:2]fF Af/e//f// gG Bg/f//g// |
[V:3]zF/E/ D2 zG/F/ E2 |
[V:4]E,D,2 <F,2 E, G,2- |
[V:1]cc' zc' de a2- |
[V:2]aA c2 B2 c2 |
[V:3]zA/G/ FE FE C2 |
[V:4]G,F,2 <A,2 G,2 F, |
[V:1]a/>b/g >>af >>ge >>fe3//f// |
[V:2]B2 A2 G2 F2- |
[V:3]FE2 D2 C2 C |
[V:4]D,E, C,D, B,,C, A,,=A,, |
[V:1]d/a/f/d/ B/A/f/A/ G/e'/b/g/ e/B/G/E/ |
[V:2]F4 G4 |
[V:3]D4 E4- |
[V:4]B,,B,, B,,B,, B,,B,, B,,B,, |
[V:1]C/e'/c'/=a/ f/e/c'/e/ d/_a/f/d/ B/A/f/A/ |
[V:2]=A4 _A4 |
[V:3]E4 F4 |
[V:4]B,,B,, B,,B,, B,,B,, B,,B,, |
[V:1]G/E/E/D//E// G/G/G/F//G// B/B/B/=A//B// e/e/e/d//e// |
[V:2]G2 z2 G2 z2 |
[V:3]E2 z2 B,2 z2 |
[V:4]E,2 z2 E,2 z2 |
[V:1]g/g/g/f//g// b/b/b/=a//b// _d'4 |
[V:2]G2 z2 >E2 EE |
[V:3]B,2 z2 >B,2 B,B, |
[V:4]E,2 z2 >G,2 G,G, |
[V:1]c'/c'/c'/b//c'// e'/e'/e'/d'//e'// g'3 =A, |
[V:2]E2 z2 >E2 E=A, |
[V:3]C2 z2 >C2 C=A, |
[V:4]A,2 z2 >=A,2 A,A, |
[V:1]B2 A/G/F/E/ E4 |
[V:2]B,E EE EE EE |
[V:3]B,G, G,G, G,G, G,G, |
[V:4]B,B,, B,,B,, B,,B,, B,,B,, |
[V:1]B2 A/_G/F/E/ E4 |
[V:2]EE EE EE EE |
[V:3]_G,G, G,G, G,G, G,G, |
[V:4]B,,B,, B,,B,, B,,B,, B,,B,, |
[V:1](3:2:2_F4- F/A_G F|
[V:2]_DD DD DD DD |
[V:3]_G,G, G,G, G,G, G,G, |
[V:4]B,,B,, B,,B,, B,,B,, B,,B,, |
[V:1]EE2 E2 E2 E |
[V:2]_C2 G,2 A,2 =A,2 |
[V:3]_G,2 =G,2 A,2 F,2 |
[V:4]_C,6 =C,2 |
[V:1](3D/F/A/(3F/D/B,/ (3A,/B,/D/(3F/D/B,/ (3D/F/A/(3F/D/B,/ (3A,/B,/D/(3F/D/B,/ |
[V:2]B,D DD DD DD |
[V:3]F,F, F,F, F,F, F,F, |
[V:4]B,,B,, B,,B,, B,,B,, B,,B,, |
[V:1](3D/F/A/(3F/D/B,/ (3A,/B,/D/(3F/D/B,/ (3D/F/A/(3F/D/B,/ (3A,/B,/D/(3F/D/B,/ |
[V:2]DD DD DD DD |
[V:3]F,F, F,F, F,F, F,F, |
[V:4]A,,A,, A,,A,, A,,A,, A,,A,, |
[V:1]G,/E/E/D//E// G/G/G/F//G// B/B/B/=A//B// e/e/e/d//e// |
[V:2]E2 z2 E2 z2 |
[V:3]E,2 z2 B,2 z2 |
[V:4]G,,2 z2 G,,2 z2 |
[V:1]g/g/g/f//g// b/b/b/=a//b// e'/e'/e'/d'//e'// g'=A, |
[V:2]E2 z2 E2 z=A, |
[V:3]B,2 z2 B,2 z=A, |
[V:4]G,,2 z2 G,,2 z=A,, |
[V:1]B,4 F4 |
[V:2]B,B AG zF zA |
[V:3]B,G FE zD zD |
[V:4]B,,2 z2 B,,z B,,z |
[V:1]Ee2 (3c/B/A/ GB2 (3A/F/D/ |
[V:2]GG2 (3A/G/F/ EB2 (3A/F/D/ |
[V:3]E2 z3 B2 (3A/F/D/ |
[V:4]E,2 z3 B,2 (3A,/F,/D,/ |
[V:1]Ee2 (3c/B/A/ GA2 (3F/D/B,/ |
[V:2]EG2 (3A/G/F/ EA2 (3F/D/B,/ |
[V:3]E2 z3 A2 (3F/D/B,/ |
[V:4]E,2 z3 A,2 (3F,/D,/B,,/ |
[V:1]E(3A/F/D/ E(3A/F/D/ E2 z2 |]
[V:2]EF EF E2 z2 |]
[V:3]EA, G,F, G,2 z2 |]
[V:4]E,B,, E,B,, E,2 z2 |]

